src/pos-icons/view-carousel.svg

<svg height="24" viewBox="0 0 24 24" width="24" xmlns="http://www.w3.org/2000/svg"><path d="m18 6v11h4v-11m-20 11h4v-11h-4m5 13h10v-15h-10z"/></svg>

<?xml version="1.0" encoding="UTF-8"?><!DOCTYPE svg PUBLIC "-//W3C//DTD SVG 1.1//EN" "http://www.w3.org/Graphics/SVG/1.1/DTD/svg11.dtd"><svg xmlns="http://www.w3.org/2000/svg" xmlns:xlink="http://www.w3.org/1999/xlink" version="1.1" id="mdi-view-carousel" width="24" height="24" viewBox="0 0 24 24"><path d="M18,6V17H22V6M2,17H6V6H2M7,19H17V4H7V19Z" /></svg>
